X:1
T:O Jesus, I Have Promised
T:Text: John E. Bode (1816-1874), alt. Tune: Arthur H. Mann (1850-1929)
T:76 76D ANGEL'S STORY www.hymnary.org/text/o_jesus_i_have_promised
T:O Jesus, I Have Promised
T:This hymn is in the public domain.  You may freely use this score for personal and congregational worship.  If you reproduce the score, please credit Hymnary.org as the source. 
T:This hymn is in the public domain.  You may freely use this score for personal and congregational worship.  If you reproduce the score, please credit Hymnary.org as the source. 
Z:This hymn is in the public domain.  You may freely use this score for personal and congregational worship.  If you reproduce the score, please credit Hymnary.org as the source.
%%score ( 1 2 ) ( 3 4 )
L:1/8
M:4/4
K:F
V:1 treble nm="Piano" snm="Pno."
V:2 treble 
V:3 bass nm="Piano" snm="Pno."
V:4 bass 
V:1
 [CA]2 | [CA]3 [CA] [CG]2 [CF]2 | [CF]4 [CE]2 C2 | B3 B [FA]2 G2 | [FA]6 A2 | %5
w: 3~O|Je- sus, you have|pro- mised to|all who fol- low|you that|
w: 1~O|Je- sus, I have|pro- mised to|serve you to the|end; re-|
w: 2~O|let me hear you|speak- ing in|ac- cents clear and|still, a-|
 [^Fc]3 [Fc] [GB]2 A2 | [DA]4 [DB]2 [DA]2 | [DG]3 [CF] [=B,E]2 [B,F]2 | [_B,G]6 [C^G]2 | %9
w: where you are in|glo- ry, your|ser- vant shall be|too; and,|
w: main for- e- ver|near me, my|Mas- ter and my|Friend: I|
w: bove the storms of|pas- sion, the|mur- murs of self-|will. O|
 [CA]3 [CA] [CG]2 [CF]2 | [CF]4 [CE]2 C2 | B3 B [FA]2 G2 | [FA]6 A2 | [^Fd]3 [Fc] [GB]2 A2 | %14
w: Je- sus, I have|pro- mised to|serve you to the|end; O|give me grace to|
w: shall not fear the|bat- tle if|you are by my|side, nor|wan- der from the|
w: speak to re- as-|sure me, to|has- ten or con-|trol; now|speak, and make me|
 [Ac]4 [GB]2 D2 | [CF]3 [CE] [B,D]2 [CE]2 | [CF]6 |] %17
w: fol- low, my|Mas- ter and my|Friend.|
w: path- way if|you will be my|guide.|
w: lis- ten, O|guar- dian of my|soul.|
V:2
 x2 | x8 | x6 C2 | C2 E2 x2 G2 | x6 G2 | x6 A2 | x8 | x8 | x8 | x8 | x6 C2 | C2 E2 x2 G2 | x6 G2 | %13
 x6 A2 | x6 D2 | x8 | x6 |] %17
V:3
 F,2 | F,3 F, [F,B,]2 [F,A,]2 | [C,A,]4 [C,G,]2 [C,E,]2 | E,2 G,2 [D,C]2 [E,C]2 | [F,C]6 [_E,C]2 | %5
 A,2 D2 [=E,D]2 [^F,D]2 | [^F,C]4 [G,B,]2 [G,C]2 | [G,,=B,]3 [G,,A,] [G,,G,]2 [G,,F,]2 | %8
 (F,4 E,2) [C,E,]2 | F,3 F, [F,B,]2 [F,A,]2 | [C,A,]4 [C,G,]2 [C,E,]2 | E,2 G,2 [D,C]2 [E,C]2 | %12
 [F,C]6 [_E,C]2 | [D,A,]3 [D,A,] [=E,D]2 [^F,D]2 | [G,D]4 [G,D]2 [G,B,]2 | %15
 [C,A,]3 [C,G,] [C,F,]2 [C,G,]2 | [F,A,]6 |] %17
V:4
 F,2 | F,3 F, x4 | x8 | C,3 C,2 x3 | x8 | D,3 D, x4 | x8 | x8 | C,6 x2 | F,3 F, x4 | x8 | %11
 C,3 C, x4 | x8 | x8 | x8 | x8 | x6 |] %17

